X:9181
T:Lady Shaftsbury's Rant. WM.096
M:2/4
L:1/8
Q:250
S:Wm.Mittell's MS,New Romney,Kent,1799
R:Rant
O:England
A:Kent
N:Vey strange 2nd half to B strain
D:
H:
Z:vmp.Chris Partington
W:Change sides,back again.lead down the middle and turn corner ways(
K:G
"*"B/A/|GDB,D|GABe|d>BA>G|FA AB/A/|GDB,D|G>AB>e|dBAB|G3:|!
|:d|g-fe-d|g2Ge|dBAG|FAAd|g-fe-d|g2Ge|dBAB|G3d|!
gfed|d/c/d/e/ f/e/f/g/|aAAA|ABce|dedB|AGAB|GB/A/ GD|G3:|]
W:Intro 2quavers in MS. |]
